**kern	**kern	**dynam
*part1	*part1	*part1
*staff2	*staff1	*
*I"Piano	*	*
*clefF4	*clefG2	*
*k[f#c#g#d#]	*k[f#c#g#d#]	*
=1	=1	=1
8EE	8r	.
*	*^	*
(8EL	(4g#	8eL	.
8BB	.	8B	<
8G#	4.b	8g#	.
8E	.	8e	.
8BBJ	.	8BJ	[
=	=	=	=
8AL	4.cc#	8aL	>
8F#	.	8d#	.
8BB	.	8B	]
8F#	4.b)	8a	.
8D#	.	8f#	.
8BBJ)	.	8BJ	.
*	*v	*v	*
=	=	=
8EE	8r	.
(8EL	(8g#L 8b	<
8BB	8BJ	.
8G#	4.g# 4.b 4.ee	[
8E	.	.
8BBJ	.	.
=	=	=
8AL	4.f# 4.a 4.dd#	>
8F#	.	.
8BB	.	.
8F#	[4.B [4.f# [4.a	]
8D#	.	.
[8BBJ)	.	.
=	=	=
*^	*	*
8EE]	[4.EE	4.B]) 4.f#] 4.a]	p
(8D#L	.	.	.
8BBJ	.	.	.
4E)	4EE]	4B 4e 4g#	p
8r	8ryy	8r	.
*v	*v	*	*
=	=	=
4r	4r	.
8r	8r	.
4EE 4E	4B 4e 4g#	p
8r	8r	.
=	=	=
2.EEE; 2.EE	2.G#; 2.B 2.e 2.g#	.
==	==	==
*-	*-	*-
!!!system-decoration: {(s1,s2)}
